!!!SOCIAL_FUNCTION:	chief songs
!!!PDT:	1918

Specific Region: Dakotas, Minnesota, Montana, Nebraska
!!!REG: Dakotas and Montana
!!!LING_GROUP: Siouan
!!!LANG: Tone
!!!OTL@ENG: Song in Honor of Gabriel Renville (b)
!!!ONM: No. 190
**kern
*Imale
*clefF4
*k[b-e-a-d-]
*M2/4
*MM92
4f
4f
=2
2c
=3
4c
4f
=4
16f
8.c
8B-
8B-
=5
16c
8.B-
8B-
16.A-
32A-
=6
4F
8F
8F
=7
(2F
=8
4F)
8A-
8A-
=9||
*M3/4
4B-
16B-
8.A-
32A-
16.F
16A-
16A-
=10||
*M2/4
4F
8F
8F
=11
[2F
=12||
*M3/4
2F]
8.F
16F
=13||
*M2/4
4c
16B-
8.c
=14
2c
=15||
*M3/4
4c
(8.f
16c)
16c
8.c
=16
8B-
8B-
12c
12B-
24B-
24B-
8.A-
16A-
=17||
*M2/4
4F
8F
8F
=18
[2F
=19
4F]
8.A-
16A-
=20||
*M3/4
4B-
16B-
8.A-
(24A-
8F)
24A-
24A-
=21||
*M2/4
(16A-
8.F)
8F
8F
=22
2F
==
*-
!!!CNT: Native American -- Sioux
!!!MRD: 1911/07//-1914///
!!!OCL: Frances Densmore
!!!YOR1: Teton Sioux Music, Bulletin 61,
!!!YOR2: Bureau of American Ethnology, Smithsonian Institution
!!!PPR: Government Printing Office
!!!PPP: Washington, D.C.
!!!PDT: 1918///
!!!ENC: Craig Stuart Sapp
!!!END: 2002/03/25/
!!!EEV: 2002/03/31/
!!!AGN: Chief Song
!!!MPN: Moses Renville
!!!TXO: Santee Sioux
!!!MLC: Sisseton, South Dakota, United States of America
!!!ARL: 45.6/-97.1:
!!!catalog: Catalogue No. 666
!!!PPG: 455
!!!EFL: 195/245
!!!VTS: 3679262082
